systematic/svg/folder.svg

<?xml version="1.0" encoding="UTF-8" standalone="no"?>
<svg
   xmlns:dc="http://purl.org/dc/elements/1.1/"
   xmlns:cc="http://creativecommons.org/ns#"
   xmlns:rdf="http://www.w3.org/1999/02/22-rdf-syntax-ns#"
   xmlns:svg="http://www.w3.org/2000/svg"
   xmlns="http://www.w3.org/2000/svg"
   viewBox="0 0 320 320"
   height="320"
   width="320"
   xml:space="preserve"
   version="1.1"
   id="svg2"><metadata
     id="metadata8"><rdf:RDF><cc:Work
         rdf:about=""><dc:format>image/svg+xml</dc:format><dc:type
           rdf:resource="http://purl.org/dc/dcmitype/StillImage" /></cc:Work></rdf:RDF></metadata><defs
     id="defs6"><clipPath
       id="clipPath16"
       clipPathUnits="userSpaceOnUse"><path
         id="path18"
         d="M 0,256 256,256 256,0 0,0 0,256 Z" /></clipPath><clipPath
       id="clipPath24"
       clipPathUnits="userSpaceOnUse"><path
         id="path26"
         d="m 40,196 176,0 0,-136 -176,0 0,136 z" /></clipPath></defs><g
     transform="matrix(1.25,0,0,-1.25,0,320)"
     id="g10"><g
       id="g12"><g
         clip-path="url(#clipPath16)"
         id="g14"><g
           id="g20"><g
             id="g22" /><g
             id="g28"><g
               style="opacity:0.5"
               id="g30"
               clip-path="url(#clipPath24)"><g
                 id="g32"
                 transform="translate(200,148)"><path
                   id="path34"
                   style="fill:#ffffff;fill-opacity:1;fill-rule:nonzero;stroke:none"
                   d="m 0,0 0,0 0,8 c 0,13.234 -10.766,24 -24,24 l -41.371,0 C -68.673,41.313 -77.57,48 -88,48 l -32,0 c -13.234,0 -24,-10.766 -24,-24 l 0,-24 c -8.822,0 -16,-7.178 -16,-16 l 0,-1.12 0.308,-1.078 16,-56 0.157,-0.549 0.233,-0.521 C -141.966,-78.255 -136.912,-88 -128,-88 l 112,0 c 8.912,0 13.966,9.745 15.302,12.732 l 0.233,0.521 0.157,0.549 16,56 L 16,-17.12 16,-16 C 16,-7.178 8.822,0 0,0" /></g></g></g></g><g
           transform="translate(176.0001,172.0001)"
           id="g36"><path
             id="path38"
             style="fill:#3096cf;fill-opacity:1;fill-rule:nonzero;stroke:none"
             d="m 0,0 -48,0 c 0,8.844 -7.156,16 -16,16 l -32,0 c -8.844,0 -16,-7.156 -16,-16 l 0,-24 0,-20.61 128,0 0,20.61 0,8 C 16,-7.156 8.844,0 0,0" /></g><g
           transform="translate(200,140)"
           id="g40"><path
             id="path42"
             style="fill:#29678f;fill-opacity:1;fill-rule:nonzero;stroke:none"
             d="m 0,0 -144,0 c -4.42,0 -8,-3.58 -8,-8 l 16,-56 c 0,0 3.58,-8 8,-8 l 112,0 c 4.42,0 8,8 8,8 L 8,-8 C 8,-3.58 4.42,0 0,0" /></g></g></g></g></svg>

<?xml version="1.0" encoding="UTF-8" standalone="no"?>
<svg
   xmlns:dc="http://purl.org/dc/elements/1.1/"
   xmlns:cc="http://creativecommons.org/ns#"
   xmlns:rdf="http://www.w3.org/1999/02/22-rdf-syntax-ns#"
   xmlns:svg="http://www.w3.org/2000/svg"
   xmlns="http://www.w3.org/2000/svg"
   viewBox="0 0 234.66665 181.33333"
   height="181.33333"
   width="234.66666"
   xml:space="preserve"
   id="svg2"
   version="1.1"><metadata
     id="metadata8"><rdf:RDF><cc:Work
         rdf:about=""><dc:format>image/svg+xml</dc:format><dc:type
           rdf:resource="http://purl.org/dc/dcmitype/StillImage" /></cc:Work></rdf:RDF></metadata><defs
     id="defs6"><clipPath
       id="clipPath18"
       clipPathUnits="userSpaceOnUse"><path
         id="path16"
         d="M 0,256 H 256 V 0 H 0 Z" /></clipPath><clipPath
       id="clipPath26"
       clipPathUnits="userSpaceOnUse"><path
         id="path24"
         d="M 40,196 H 216 V 60 H 40 Z" /></clipPath></defs><g
     transform="matrix(1.3333333,0,0,-1.3333333,-53.333332,261.33333)"
     id="g10"><g
       id="g12"><g
         clip-path="url(#clipPath18)"
         id="g14"><g
           id="g20"><g
             id="g22" /><g
             id="g34"><g
               style="opacity:0.5"
               id="g32"
               clip-path="url(#clipPath26)"><g
                 id="g30"
                 transform="translate(200,148)"><path
                   id="path28"
                   style="fill:#ffffff;fill-opacity:1;fill-rule:nonzero;stroke:none"
                   d="M 0,0 V 0 8 C 0,21.234 -10.766,32 -24,32 H -65.371 C -68.673,41.313 -77.57,48 -88,48 h -32 c -13.234,0 -24,-10.766 -24,-24 V 0 c -8.822,0 -16,-7.178 -16,-16 v -1.12 l 0.308,-1.078 16,-56 0.157,-0.549 0.233,-0.521 C -141.966,-78.255 -136.912,-88 -128,-88 h 112 c 8.912,0 13.966,9.745 15.302,12.732 l 0.233,0.521 0.157,0.549 16,56 L 16,-17.12 V -16 C 16,-7.178 8.822,0 0,0" /></g></g></g></g><g
           transform="translate(176.0001,172.0001)"
           id="g36"><path
             id="path38"
             style="fill:#3096cf;fill-opacity:1;fill-rule:nonzero;stroke:none"
             d="m 0,0 h -48 c 0,8.844 -7.156,16 -16,16 h -32 c -8.844,0 -16,-7.156 -16,-16 V -24 -44.61 H 16 V -24 -16 C 16,-7.156 8.844,0 0,0" /></g><g
           transform="translate(200,140)"
           id="g40"><path
             id="path42"
             style="fill:#29678f;fill-opacity:1;fill-rule:nonzero;stroke:none"
             d="m 0,0 h -144 c -4.42,0 -8,-3.58 -8,-8 l 16,-56 c 0,0 3.58,-8 8,-8 h 112 c 4.42,0 8,8 8,8 L 8,-8 C 8,-3.58 4.42,0 0,0" /></g></g></g></g></svg>
